!!! OTL: Berkowitz391
!!! Chapter: 1
!!! Section: III
!!! Page: 96
!!! Mode: 
!!! Encoder: DJB
**kern
*staff1
*I"Piano
=1-
*clefC3
*k[f#]
*e:
*met(c|)
*M2/2
2r
8r
8B/L
8B/
8B/J
=2
8e\L
8b\
8b\
8b\J
8cc\L
8a\
8a\
8a\J
=3
8b\L
8g\
8g\
8g\J
8a\L
8f#\
8f#\
8f#\J
=4
8g\L
8e\
8e\
8g\J
8f#\L
8e\
8d#\
8c#\J
=5
4d#\
4B/
4r
[4cc\
=6
!!linebreak:original
8cc\L]
8a\
8a\
8a\J
8b\L
8g\
8g\
8g\J
=7
8a\L
8f#\
8f#\
8f#\J
8g\L
8e\
8e\
8e\J
=8
4c\
2B/
8c#\L
8d#\J
=9
8e\L
8d#\
8e\
8f#\J
8g\L
8f#\
8g\
8g#\J
=10
4a\
4b\
2cc\
=11
!!linebreak:original
8r
8d#\L
8d#\
8d#\J
8d#\L
8d#\
8c#\
8d#\J
=12
8f#\L
8e\J
8r
8d#\
8f#\L
8e\J
8r
8d#\
=13
4f#\
4e\
2r
==
*-
